assets/icons/producto-factoring.svg

<svg width="65" height="70" viewBox="0 0 65 70" fill="none" xmlns="http://www.w3.org/2000/svg">
<path d="M46.0776 54.9734C45.6449 55.3398 45.0027 55.5195 44.1511 55.5195C43.3441 55.5195 42.7053 55.3156 42.2314 54.9077C41.8949 54.6209 41.6408 54.2165 41.4657 53.6981C41.3283 53.2938 40.9437 53.0207 40.5213 53.0657L39.6903 53.1486C39.1477 53.2004 38.7596 53.7292 38.9004 54.258C39.1648 55.2464 39.6319 56.0344 40.3084 56.6185C41.1978 57.3892 42.4718 57.7763 44.1305 57.7728C45.2706 57.7728 46.2218 57.6104 46.9842 57.289C47.75 56.9676 48.3372 56.4768 48.7561 55.8132C49.1716 55.1531 49.3811 54.4446 49.3811 53.6877C49.3811 52.8514 49.206 52.1498 48.8557 51.583C48.5054 51.0162 48.0212 50.5704 47.4065 50.242C46.7884 49.9172 45.8338 49.5992 44.546 49.2951C43.2582 48.9909 42.4444 48.6972 42.1113 48.4138C41.8468 48.1926 41.7163 47.9265 41.7163 47.612C41.7163 47.2698 41.8571 46.9968 42.1353 46.7929C42.5714 46.4749 43.1724 46.3125 43.9416 46.3125C44.6868 46.3125 45.2465 46.4611 45.6208 46.7583C45.8681 46.9553 46.0604 47.2387 46.1943 47.6051C46.3317 47.9818 46.7163 48.203 47.1147 48.1857L48.0006 48.1442C48.5776 48.12 48.9931 47.5532 48.8351 46.9933C48.6325 46.2814 48.2513 45.68 47.6881 45.1893C46.8537 44.4635 45.614 44.1006 43.9691 44.1041C42.9595 44.1041 42.101 44.2596 41.3867 44.5672C40.6758 44.8748 40.1298 45.3206 39.7521 45.9081C39.3743 46.4922 39.1855 47.1212 39.1855 47.7951C39.1855 48.8389 39.5907 49.7236 40.3942 50.4494C40.9677 50.9644 41.9636 51.3998 43.3853 51.7523C44.4876 52.0288 45.195 52.2189 45.5075 52.3295C45.9608 52.4919 46.2767 52.682 46.4622 52.8998C46.6442 53.1175 46.7335 53.3836 46.7369 53.6947C46.7369 54.182 46.5206 54.6071 46.0879 54.97L46.0776 54.9734Z" fill="#4CAD36"/>
<path d="M53.3303 44.1006C52.9148 44.1006 52.5507 44.3875 52.4546 44.7987L49.649 56.6427C49.515 57.2129 49.9443 57.759 50.5281 57.759C50.9436 57.759 51.3042 57.4721 51.4038 57.0643L54.2437 45.2204C54.3811 44.6501 53.9518 44.1006 53.368 44.1006H53.3303Z" fill="#4CAD36"/>
<path d="M10.1163 12.2287H26.064C27.1732 12.2287 28.0729 11.3232 28.0729 10.2069C28.0729 9.09056 27.1732 8.18507 26.064 8.18507H10.1163C9.00708 8.18507 8.10736 9.09056 8.10736 10.2069C8.10736 11.3232 9.00708 12.2287 10.1163 12.2287Z" fill="#4CAD36"/>
<path d="M10.1163 20.3228H39.4636C40.5728 20.3228 41.4725 19.4173 41.4725 18.301C41.4725 17.1847 40.5728 16.2792 39.4636 16.2792H10.1163C9.00708 16.2792 8.10736 17.1847 8.10736 18.301C8.10736 19.4173 9.00708 20.3228 10.1163 20.3228Z" fill="#4CAD36"/>
<path d="M50.0508 33.0688V2.11275C50.0508 0.996434 49.151 0.0909424 48.0418 0.0909424H2.07718C0.967987 0.0909424 0.0682678 0.996434 0.0682678 2.11275V58.7543C0.0682678 59.8707 0.967987 60.7762 2.07718 60.7762H31.2425C31.2803 60.7762 31.3181 60.7727 31.3593 60.7692C34.6834 65.9672 40.3805 69.1364 46.5686 69.1364C56.5445 69.1364 64.6592 60.9697 64.6592 50.9298C64.6592 42.0892 58.3646 34.7035 50.0508 33.0619V33.0688ZM4.0861 4.13801H46.0295V32.737C44.6937 32.775 43.3922 32.9617 42.1422 33.2796V26.3917C42.1422 25.2754 41.2424 24.3699 40.1332 24.3699C40.0886 24.3699 40.0474 24.3733 40.0062 24.3768C39.9581 24.3768 39.9135 24.3699 39.8654 24.3699H10.3841C9.60117 24.3699 8.92123 24.8226 8.59156 25.4827C8.28937 25.8352 8.10736 26.2949 8.10736 26.7995V50.6706C8.10736 51.7869 9.00708 52.6924 10.1163 52.6924H28.5605C28.6945 54.0679 28.9829 55.4296 29.4225 56.7395H4.0861V4.13801ZM28.6189 48.6419H20.1677V44.5948H29.6079C29.1306 45.8805 28.794 47.2353 28.6189 48.6419ZM38.1243 32.4674C38.0797 32.4674 38.035 32.4605 37.9904 32.4605H20.1677V28.4135H38.1243V32.4674ZM16.1465 32.4605H12.1252V28.4135H16.1465V32.4605ZM12.1286 36.5041H16.1499V40.5512H12.1286V36.5041ZM12.1286 44.5983H16.1499V48.6453H12.1286V44.5983ZM31.7164 40.5512H20.1677V36.5041H35.5488C34.0756 37.6481 32.781 39.0133 31.7164 40.5512ZM46.5652 65.0962C41.3592 65.0962 36.5962 62.207 34.134 57.5551C33.0626 55.5298 32.4959 53.2385 32.4959 50.9367C32.5062 50.8469 32.5165 50.757 32.5165 50.6671C32.5165 50.5946 32.5131 50.5254 32.5062 50.4563C32.7604 42.8702 38.9691 36.7772 46.5686 36.7772C54.1682 36.7772 60.6379 43.1294 60.6379 50.9367C60.6379 58.744 54.3261 65.0962 46.5686 65.0962H46.5652Z" fill="#4CAD36"/>
</svg>

<svg version="1.2" xmlns="http://www.w3.org/2000/svg" viewBox="0 0 65 70" width="65" height="70">
	<style>
		.s0 { fill: #0865d8 } 
	</style>
	<path class="s0" d="m46.08 54.97q-0.65 0.55-1.93 0.55-1.21 0-1.92-0.61-0.5-0.43-0.76-1.21c-0.14-0.41-0.53-0.68-0.95-0.63l-0.83 0.08c-0.54 0.05-0.93 0.58-0.79 1.11q0.4 1.48 1.41 2.36 1.33 1.16 3.82 1.15 1.71 0 2.85-0.48 1.15-0.48 1.78-1.48 0.62-0.99 0.62-2.12 0-1.26-0.52-2.11-0.53-0.85-1.45-1.34-0.93-0.49-2.86-0.94-1.94-0.46-2.44-0.89-0.39-0.33-0.39-0.8 0-0.51 0.42-0.82 0.65-0.48 1.8-0.48 1.12 0 1.68 0.45 0.37 0.29 0.57 0.85c0.14 0.37 0.53 0.59 0.92 0.58l0.89-0.05c0.58-0.02 0.99-0.59 0.84-1.15q-0.31-1.06-1.15-1.8-1.25-1.09-3.72-1.09-1.51 0-2.58 0.47-1.07 0.46-1.64 1.34-0.56 0.87-0.56 1.89 0 1.56 1.2 2.65 0.86 0.77 3 1.3 1.65 0.42 2.12 0.58 0.68 0.24 0.95 0.57 0.27 0.33 0.28 0.79 0 0.74-0.65 1.28z"/>
	<path class="s0" d="m53.33 44.1c-0.42 0-0.78 0.29-0.88 0.7l-2.8 11.84c-0.13 0.57 0.29 1.12 0.88 1.12 0.41 0 0.77-0.29 0.87-0.7l2.84-11.84c0.14-0.57-0.29-1.12-0.87-1.12z"/>
	<path class="s0" d="m10.12 12.23h15.94c1.11 0 2.01-0.91 2.01-2.02 0-1.12-0.9-2.02-2.01-2.02h-15.94c-1.11 0-2.01 0.9-2.01 2.02 0 1.11 0.9 2.02 2.01 2.02z"/>
	<path class="s0" d="m10.12 20.32h29.34c1.11 0 2.01-0.9 2.01-2.02 0-1.12-0.9-2.02-2.01-2.02h-29.34c-1.11 0-2.01 0.9-2.01 2.02 0 1.12 0.9 2.02 2.01 2.02z"/>
	<path class="s0" d="m50.05 33.07v-30.96c0-1.11-0.9-2.02-2.01-2.02h-45.96c-1.11 0-2.01 0.91-2.01 2.02v56.64c0 1.12 0.9 2.03 2.01 2.03h29.16q0.06 0 0.12-0.01c3.32 5.2 9.02 8.37 15.21 8.37 9.97 0 18.09-8.17 18.09-18.21 0-8.84-6.3-16.23-14.61-17.87zm-45.96-28.93h41.94v28.6q-2.01 0.06-3.89 0.54v-6.89c0-1.11-0.9-2.02-2.01-2.02q-0.06 0-0.12 0.01-0.07 0-0.14-0.01h-29.49c-0.78 0-1.46 0.46-1.79 1.12-0.3 0.35-0.48 0.81-0.48 1.31v23.87c0 1.12 0.9 2.03 2.01 2.03h18.44q0.2 2.07 0.86 4.04h-25.33zm24.53 44.51h-8.45v-4.05h9.44q-0.72 1.93-0.99 4.05zm9.5-16.18q-0.06 0-0.13 0h-17.82v-4.05h17.95zm-21.97-0.01h-4.02v-4.05h4.02zm-4.02 4.05h4.02v4.04h-4.02zm0 8.1h4.02v4.05h-4.02zm19.59-4.05h-11.55v-4.05h15.38c-1.47 1.15-2.77 2.51-3.83 4.05zm14.85 24.54c-5.21 0-9.97-2.89-12.44-7.54-1.07-2.02-1.63-4.31-1.63-6.62q0.01-0.13 0.02-0.27 0-0.1-0.01-0.21c0.25-7.58 6.46-13.68 14.06-13.68 7.6 0 14.07 6.36 14.07 14.16 0 7.81-6.31 14.16-14.07 14.16z"/>
</svg>
